X: 40186
T: Timmy Clifford's
R: jig
M: 6/8
K: Gmajor
|:G,B,D ~E3|DEF ~G3|G,B,D CAB|AGF GDB,|
G,B,D ~E3|EDE GAB|~d3 ~B3|1 AGF GDB,:|2 AGF GBd||
|:efe ~d3|~B3 GBd|ege ded|BAG ABd|
efe ~d3|~B3 GAB|~c3 ~B3|AGF G3:|

